dist/icons/svgs/wifi-outline.svg

<svg xmlns="http://www.w3.org/2000/svg" width="24" height="24" fill="currentcolor" class="icon-wifi-outline" viewBox="0 0 24 24">
  <path d="M1.46316 9.26562C1.08787 9.61719 0.524928 9.57812 0.224694 9.1875C-0.113068 8.79688 -0.0755388 8.21094 0.299753 7.85938C3.41467 5.00781 7.50535 3.25 12.0089 3.25C16.4748 3.25 20.5655 5.00781 23.6804 7.85938C24.0557 8.21094 24.0932 8.79688 23.793 9.1875C23.4552 9.57812 22.8923 9.61719 22.517 9.26562C19.7023 6.6875 16.0245 5.125 12.0089 5.125C7.9557 5.125 4.27784 6.6875 1.46316 9.26562ZM12.0089 12C9.56946 12 7.35524 12.9766 5.70395 14.5781C5.32866 14.9297 4.76572 14.8906 4.42796 14.5C4.0902 14.1094 4.12773 13.5234 4.46549 13.1719C6.45454 11.2969 9.08158 10.125 12.0089 10.125C14.8986 10.125 17.5256 11.2969 19.5147 13.1719C19.8524 13.5234 19.89 14.1094 19.5522 14.5C19.2144 14.8906 18.6515 14.9297 18.2762 14.5781C16.6249 12.9766 14.4107 12 12.0089 12ZM14.1105 18.5625C14.1105 19.3828 13.6977 20.0859 13.0597 20.4766C12.3841 20.8672 11.596 20.8672 10.958 20.4766C10.2825 20.0859 9.90722 19.3828 9.90722 18.5625C9.90722 17.7812 10.2825 17.0781 10.958 16.6875C11.596 16.2969 12.3841 16.2969 13.0597 16.6875C13.6977 17.0781 14.1105 17.7812 14.1105 18.5625Z"/>
</svg>

<svg xmlns="http://www.w3.org/2000/svg" width="24" height="24" fill="currentColor" class="icon-wifi-outline" viewBox="0 0 24 24">
  <path d="M1.463 9.266c-.375.351-.938.312-1.238-.079A.96.96 0 0 1 .3 7.86c3.115-2.852 7.205-4.61 11.709-4.61 4.466 0 8.557 1.758 11.671 4.61a1 1 0 0 1 .113 1.327.873.873 0 0 1-1.276.079c-2.815-2.578-6.492-4.141-10.508-4.141-4.053 0-7.731 1.563-10.546 4.14M12.01 12c-2.44 0-4.654.977-6.305 2.578a.87.87 0 0 1-1.276-.078.997.997 0 0 1 .037-1.328c1.99-1.875 4.617-3.047 7.544-3.047 2.89 0 5.517 1.172 7.506 3.047a.997.997 0 0 1 .037 1.328c-.338.39-.9.43-1.276.078C16.625 12.977 14.411 12 12.01 12m2.101 6.563c0 .82-.412 1.523-1.05 1.914-.676.39-1.464.39-2.102 0-.675-.391-1.05-1.094-1.05-1.915 0-.78.375-1.484 1.05-1.875.638-.39 1.426-.39 2.102 0a2.2 2.2 0 0 1 1.05 1.875"/>
</svg>
